X: 10942
T: MARCELIA -- Hornpipe
R: hornpipe
B: K\"ohler's Violin Repository, v.1, 1885 p.94 #2
F: http://www.archive.org/details/klersviolinrepos01edin
Z: 2012 John Chambers <jc:trillian.mit.edu>
M: C|
L: 1/8
K: C
u(c>d) |\
(e>d)c>B (c>G)E>G | (e>d)c>B (c>G)E>G | (A>c)f>e (d>c)B>c | (3dec (3BcA G2(c>d) |
(e>d)c>B (c>G)E>G | (e>d)c>B (A>c)f>a | (a>g)^f>g (=f>d)g>f | e2c2c2 :||: u(B>c) |
(d>c)B>c d2g2 | (e>d)c>d e2g2 | (f>e)f>g (a>g)f>e | (3dec (3BcA (3GAF (3EFD |
(C>E)G>c (e>g)e>c | (f>e)f>g a2g>f | (3egf (3edc (3Bag (3fed | e2c2c2 :|

%%sep 2 1 500

